DSC_8749.xmp
<x:xmpmeta xmlns:x="adobe:ns:meta/" x:xmptk="Adobe XMP Core 5.6-c011 79.156380, 2014/05/21-23:38:37        ">
 <rdf:RDF xmlns:rdf="http://www.w3.org/1999/02/22-rdf-syntax-ns#">
  <rdf:Description rdf:about=""
    xmlns:xmp="http://ns.adobe.com/xap/1.0/"
    xmlns:tiff="http://ns.adobe.com/tiff/1.0/"
    xmlns:exif="http://ns.adobe.com/exif/1.0/"
    xmlns:aux="http://ns.adobe.com/exif/1.0/aux/"
    xmlns:photoshop="http://ns.adobe.com/photoshop/1.0/"
    xmlns:xmpMM="http://ns.adobe.com/xap/1.0/mm/"
    xmlns:stEvt="http://ns.adobe.com/xap/1.0/sType/ResourceEvent#"
    xmlns:dc="http://purl.org/dc/elements/1.1/"
    xmlns:crs="http://ns.adobe.com/camera-raw-settings/1.0/"
   xmp:CreatorTool="NIKON D750 Ver.1.02     "
   xmp:CreateDate="2016-01-17T14:07:28.72"
   xmp:ModifyDate="2016-01-17T14:07:28.72"
   xmp:Rating="0"
   xmp:MetadataDate="2016-01-17T13:25:55-08:00"
   tiff:Make="NIKON CORPORATION"
   tiff:Model="NIKON D750"
   tiff:Orientation="8"
   exif:ExifVersion="0221"
   exif:ExposureTime="1/400"
   exif:ShutterSpeedValue="8643856/1000000"
   exif:FNumber="28/10"
   exif:ApertureValue="2970854/1000000"
   exif:ExposureProgram="3"
   exif:SensitivityType="2"
   exif:ExposureBiasValue="0/6"
   exif:MaxApertureValue="30/10"
   exif:MeteringMode="5"
   exif:LightSource="0"
   exif:FocalLength="240/10"
   exif:SensingMethod="2"
   exif:FileSource="3"
   exif:SceneType="1"
   exif:FocalLengthIn35mmFilm="24"
   exif:CustomRendered="0"
   exif:ExposureMode="0"
   exif:WhiteBalance="1"
   exif:SceneCaptureType="0"
   exif:GainControl="2"
   exif:Contrast="0"
   exif:Saturation="0"
   exif:Sharpness="1"
   exif:SubjectDistanceRange="0"
   exif:DigitalZoomRatio="1/1"
   exif:FocalPlaneXResolution="54886891/32768"
   exif:FocalPlaneYResolution="54886891/32768"
   exif:FocalPlaneResolutionUnit="3"
   exif:DateTimeOriginal="2016-01-17T14:07:28.72"
   aux:SerialNumber="3051189"
   aux:LensInfo="240/10 700/10 28/10 28/10"
   aux:Lens="24.0-70.0 mm f/2.8"
   aux:LensID="254"
   aux:ImageNumber="9690"
   aux:ApproximateFocusDistance="79/100"
   photoshop:DateCreated="2016-01-17T14:07:28.72"
   photoshop:SidecarForExtension="NEF"
   photoshop:EmbeddedXMPDigest="7A32510B17068543DBD4CBACE0AEAAEE"
   xmpMM:DocumentID="92BB6308F9D8F87558757503C7011D91"
   xmpMM:OriginalDocumentID="92BB6308F9D8F87558757503C7011D91"
   xmpMM:InstanceID="xmp.iid:eba7679e-c61b-6d47-9029-2e0bcdf366a4"
   dc:format="image/x-nikon-nef"
   crs:RawFileName="DSC_8749.NEF"
   crs:Version="9.3.1"
   crs:ProcessVersion="6.7"
   crs:WhiteBalance="Custom"
   crs:AutoWhiteVersion="134348800"
   crs:Temperature="4550"
   crs:Tint="+1"
   crs:Saturation="+14"
   crs:Sharpness="25"
   crs:LuminanceSmoothing="0"
   crs:ColorNoiseReduction="25"
   crs:VignetteAmount="0"
   crs:ShadowTint="0"
   crs:RedHue="0"
   crs:RedSaturation="0"
   crs:GreenHue="0"
   crs:GreenSaturation="0"
   crs:BlueHue="0"
   crs:BlueSaturation="0"
   crs:Vibrance="+15"
   crs:HueAdjustmentRed="0"
   crs:HueAdjustmentOrange="0"
   crs:HueAdjustmentYellow="0"
   crs:HueAdjustmentGreen="0"
   crs:HueAdjustmentAqua="0"
   crs:HueAdjustmentBlue="0"
   crs:HueAdjustmentPurple="0"
   crs:HueAdjustmentMagenta="0"
   crs:SaturationAdjustmentRed="0"
   crs:SaturationAdjustmentOrange="0"
   crs:SaturationAdjustmentYellow="0"
   crs:SaturationAdjustmentGreen="0"
   crs:SaturationAdjustmentAqua="0"
   crs:SaturationAdjustmentBlue="0"
   crs:SaturationAdjustmentPurple="0"
   crs:SaturationAdjustmentMagenta="0"
   crs:LuminanceAdjustmentRed="0"
   crs:LuminanceAdjustmentOrange="0"
   crs:LuminanceAdjustmentYellow="0"
   crs:LuminanceAdjustmentGreen="0"
   crs:LuminanceAdjustmentAqua="0"
   crs:LuminanceAdjustmentBlue="0"
   crs:LuminanceAdjustmentPurple="0"
   crs:LuminanceAdjustmentMagenta="0"
   crs:SplitToningShadowHue="0"
   crs:SplitToningShadowSaturation="0"
   crs:SplitToningHighlightHue="0"
   crs:SplitToningHighlightSaturation="0"
   crs:SplitToningBalance="0"
   crs:ParametricShadows="0"
   crs:ParametricDarks="0"
   crs:ParametricLights="0"
   crs:ParametricHighlights="0"
   crs:ParametricShadowSplit="25"
   crs:ParametricMidtoneSplit="50"
   crs:ParametricHighlightSplit="75"
   crs:SharpenRadius="+1.0"
   crs:SharpenDetail="25"
   crs:SharpenEdgeMasking="0"
   crs:PostCropVignetteAmount="0"
   crs:GrainAmount="0"
   crs:ColorNoiseReductionDetail="50"
   crs:ColorNoiseReductionSmoothness="50"
   crs:LensProfileEnable="0"
   crs:LensManualDistortionAmount="+10"
   crs:PerspectiveVertical="0"
   crs:PerspectiveHorizontal="0"
   crs:PerspectiveRotate="0.0"
   crs:PerspectiveScale="100"
   crs:PerspectiveAspect="0"
   crs:PerspectiveUpright="0"
   crs:AutoLateralCA="1"
   crs:Exposure2012="0.00"
   crs:Contrast2012="+20"
   crs:Highlights2012="0"
   crs:Shadows2012="+48"
   crs:Whites2012="0"
   crs:Blacks2012="0"
   crs:Clarity2012="+13"
   crs:DefringePurpleAmount="0"
   crs:DefringePurpleHueLo="30"
   crs:DefringePurpleHueHi="70"
   crs:DefringeGreenAmount="0"
   crs:DefringeGreenHueLo="40"
   crs:DefringeGreenHueHi="60"
   crs:Dehaze="0"
   crs:ToneMapStrength="0"
   crs:ConvertToGrayscale="False"
   crs:ToneCurveName="Medium Contrast"
   crs:ToneCurveName2012="Linear"
   crs:CameraProfile="Adobe Standard"
   crs:CameraProfileDigest="5F02E85A544BE2CCC1DFAA73D311C57C"
   crs:LensProfileSetup="LensDefaults"
   crs:HasSettings="True"
   crs:CropTop="0.022876"
   crs:CropLeft="0.02381"
   crs:CropBottom="0.977124"
   crs:CropRight="0.987179"
   crs:CropAngle="0"
   crs:CropConstrainToWarp="1"
   crs:HasCrop="True"
   crs:AlreadyApplied="False">
   <exif:ISOSpeedRatings>
    <rdf:Seq>
     <rdf:li>1250</rdf:li>
    </rdf:Seq>
   </exif:ISOSpeedRatings>
   <exif:Flash
    exif:Fired="False"
    exif:Return="0"
    exif:Mode="2"
    exif:Function="False"
    exif:RedEyeMode="False"/>
   <xmpMM:History>
    <rdf:Seq>
     <rdf:li
      stEvt:action="saved"
      stEvt:instanceID="xmp.iid:eba7679e-c61b-6d47-9029-2e0bcdf366a4"
      stEvt:when="2016-01-17T13:25:55-08:00"
      stEvt:softwareAgent="Adobe Photoshop Camera Raw 9.3.1 (Windows)"
      stEvt:changed="/metadata"/>
    </rdf:Seq>
   </xmpMM:History>
   <crs:ToneCurve>
    <rdf:Seq>
     <rdf:li>0, 0</rdf:li>
     <rdf:li>32, 22</rdf:li>
     <rdf:li>64, 56</rdf:li>
     <rdf:li>128, 128</rdf:li>
     <rdf:li>192, 196</rdf:li>
     <rdf:li>255, 255</rdf:li>
    </rdf:Seq>
   </crs:ToneCurve>
   <crs:ToneCurveRed>
    <rdf:Seq>
     <rdf:li>0, 0</rdf:li>
     <rdf:li>255, 255</rdf:li>
    </rdf:Seq>
   </crs:ToneCurveRed>
   <crs:ToneCurveGreen>
    <rdf:Seq>
     <rdf:li>0, 0</rdf:li>
     <rdf:li>255, 255</rdf:li>
    </rdf:Seq>
   </crs:ToneCurveGreen>
   <crs:ToneCurveBlue>
    <rdf:Seq>
     <rdf:li>0, 0</rdf:li>
     <rdf:li>255, 255</rdf:li>
    </rdf:Seq>
   </crs:ToneCurveBlue>
   <crs:ToneCurvePV2012>
    <rdf:Seq>
     <rdf:li>0, 0</rdf:li>
     <rdf:li>255, 255</rdf:li>
    </rdf:Seq>
   </crs:ToneCurvePV2012>
   <crs:ToneCurvePV2012Red>
    <rdf:Seq>
     <rdf:li>0, 0</rdf:li>
     <rdf:li>255, 255</rdf:li>
    </rdf:Seq>
   </crs:ToneCurvePV2012Red>
   <crs:ToneCurvePV2012Green>
    <rdf:Seq>
     <rdf:li>0, 0</rdf:li>
     <rdf:li>255, 255</rdf:li>
    </rdf:Seq>
   </crs:ToneCurvePV2012Green>
   <crs:ToneCurvePV2012Blue>
    <rdf:Seq>
     <rdf:li>0, 0</rdf:li>
     <rdf:li>255, 255</rdf:li>
    </rdf:Seq>
   </crs:ToneCurvePV2012Blue>
  </rdf:Description>
 </rdf:RDF>
</x:xmpmeta>
